!!!COM: des Prez, Josquin
!!!CDT: ~1450-1521/08/27
!!!OTL: Faulte d'argent
!!!AGN: Chanson
!!!SCT: NJE 29.7
!!!SCA: New Josquin Edition 29.7
!!!voices: 5
**kern	**text	**kern	**text	**kern	**text	**kern	**text	**kern	**text
*staff5	*	*staff4	*	*staff3	*	*staff2	*	*staff1	*
*Ivox	*	*Ivox	*	*Ivox	*	*Ivox	*	*Ivox	*
*I"Bassus	*	*I"Quinta pars	*	*I"Altus	*	*I"Tenor	*	*I"Superius	*
*I'B	*	*I'Q	*	*I'A	*	*I'T	*	*I'S	*
*clefF4	*	*clefGv2	*	*clefGv2	*	*clefGv2	*	*clefG2	*
*k[b-]	*	*k[b-]	*	*k[b-]	*	*k[]	*	*k[b-]	*
*M2/1	*	*M2/1	*	*M2/1	*	*M2/1	*	*M2/1	*
*met(C|)	*	*met(C|)	*	*met(C|)	*	*met(C|)	*	*met(C|)	*
=1-	=1-	=1-	=1-	=1-	=1-	=1-	=1-	=1-	=1-
!	!	!	!	!	!	!LO:TX:Z=6:t=Canon. Faulte dargent par nature. [Canon at the lower 5th (T-->Q, 3 breves)]	!	!	!
1B-	Faul-	0r	.	2r	.	0r	.	0r	.
.	.	.	.	1B-	Faul-	.	.	.	.
2G\	-te	.	.	.	.	.	.	.	.
[2B-\	d'ar-	.	.	2G/	-te	.	.	.	.
=2	=2	=2	=2	=2	=2	=2	=2	=2	=2
2B-\]	.	0r	.	1B-	d'ar-	0r	.	0r	.
4A\	.	.	.	.	.	.	.	.	.
4G\	.	.	.	.	.	.	.	.	.
2.F\	-gent	.	.	2.A/	-gent	.	.	.	.
4G\	.	.	.	4G/	.	.	.	.	.
=3	=3	=3	=3	=3	=3	=3	=3	=3	=3
2A\	.	0r	.	2F/	.	0r	.	0r	.
2D\	c'est	.	.	2F/	c'est	.	.	.	.
[1E-i	dou-	.	.	2G/	dou-	.	.	.	.
.	.	.	.	2G/	-leur	.	.	.	.
=4	=4	=4	=4	=4	=4	=4	=4	=4	=4
2E-\]	.	0r	.	2G/	non	0r	.	0r	.
2D\	-leur	.	.	2.A/	pa-	.	.	.	.
2C/	non	.	.	.	.	.	.	.	.
.	.	.	.	4G/	.	.	.	.	.
2BB-/	pa-	.	.	[2G/	-reil	.	.	.	.
=5	=5	=5	=5	=5	=5	=5	=5	=5	=5
1AA	-reil-	0r	.	2G/]	.	0r	.	1r	.
.	.	.	.	2F#i/	.	.	.	.	.
2GG/	-le,	.	.	2.G/	-le,	.	.	1b-	Faul-
[2G\	faul-	.	.	.	.	.	.	.	.
.	.	.	.	4A/	.	.	.	.	.
=6	=6	=6	=6	=6	=6	=6	=6	=6	=6
2G\]	.	0r	.	2B-\	.	0r	.	1g	-te
2C/	-te	.	.	2c\	faul-	.	.	.	.
1G	d'ar-	.	.	2d\	-te	.	.	1b-	d'ar-
.	.	.	.	2e\	d'ar-	.	.	.	.
=7	=7	=7	=7	=7	=7	=7	=7	=7	=7
2F\	-gent,	0r	.	2f\	-gent,	1f	Faul-	2.a/	-gent
1D	faul-	.	.	2.F/	faul-	.	.	.	.
.	.	.	.	.	.	.	.	4g/	.
.	.	.	.	.	.	1d	-te	1f	.
.	.	.	.	4G/	.	.	.	.	.
2BB-/	-te	.	.	2B-\	-te	.	.	.	.
=8	=8	=8	=8	=8	=8	=8	=8	=8	=8
1D	d'ar-	0r	.	2A/	d'ar-	1f	d'ar-	2r	.
.	.	.	.	2F/	.	.	.	2f/	c'est
2.C/	-gent	.	.	1c	-gent	2.e\	-gent	2g/	dou-
.	.	.	.	.	.	.	.	2g/	-leur
4D\	.	.	.	.	.	4d\	.	.	.
=9	=9	=9	=9	=9	=9	=9	=9	=9	=9
2E\	.	0r	.	2r	.	1c	.	2g/	non
2.F\	c'est	.	.	2c\	c'est	.	.	2.a/	pa-
.	.	.	.	2d\	dou-	2r	.	.	.
4G\	.	.	.	.	.	.	.	4g/	.
2E\	dou-	.	.	2e\	-leur	2c\	c'est	[2g/	-reil-
=10	=10	=10	=10	=10	=10	=10	=10	=10	=10
!	!	!LO:TX:Z=6:t=Faulte dargent par bemol.	!	!	!	!	!	!	!
1D	-leur	1B-	Faul-	4f\	non	2d\	dou-	2g/]	.
.	.	.	.	4e\	.	.	.	.	.
.	.	.	.	4d\	.	2d\	-leur	2f#i/	.
.	.	.	.	4c\	.	.	.	.	.
2GG/	non	1G	-te	4B-\	.	2d\	non	1g	-le,
.	.	.	.	4A/	.	.	.	.	.
2C/	pa-	.	.	[2G/	.	[2e\	pa-	.	.
=11	=11	=11	=11	=11	=11	=11	=11	=11	=11
2BB-/	-reil-	1B-	d'ar	4G/]	.	4e\]	.	1r	.
.	.	.	.	4F/	.	4d\	.	.	.
2GG/	.	.	.	2G/	pa-	1d	-reil-	.	.
1AA	-le,	2.A/	-gent	1E	-reil-	.	.	2r	.
.	.	.	.	.	.	2c#i\	.	2e/	non
.	.	4G/	.	.	.	.	.	.	.
=12	=12	=12	=12	=12	=12	=12	=12	=12	=12
1r	.	1F	.	0D	-le,	1d	-le,	2f/	pa-
.	.	.	.	.	.	.	.	2.a/	-reil-
1A	c'est	2r	.	.	.	1r	.	.	.
.	.	.	.	.	.	.	.	4g/	.
.	.	2F/	c'est	.	.	.	.	4f/	.
.	.	.	.	.	.	.	.	4e/	.
=13	=13	=13	=13	=13	=13	=13	=13	=13	=13
2.B-\	dou-	2G/	dou-	2r	.	0r	.	0d	-le,
.	.	2G/	-leur	2G/	c'est	.	.	.	.
4A\	-leur	.	.	.	.	.	.	.	.
2G\	non	2G/	non	2B-\	dou-	.	.	.	.
2F\	.pa-	[2A/	pa-	2A/	-leur	.	.	.	.
=14	=14	=14	=14	=14	=14	=14	=14	=14	=14
1E-i	-reil-	4A/]	.	2B-\	non	2r	.	1r	.
.	.	4G/	.	.	.	.	.	.	.
.	.	1G	-reil-	2G/	pa-	2c\	c'est	.	.
1D	-le,	.	.	1A	-reil	2d\	dou-	2r	.
.	.	2F#i/	.	.	.	2d\	-leur	2a/	c'est
=15	=15	=15	=15	=15	=15	=15	=15	=15	=15
0r	.	1G	-le,	1G	-le,	2d\	non	2.b-\	dou-
.	.	.	.	.	.	2.e\	pa-	.	.
.	.	.	.	.	.	.	.	4a/	-leur
.	.	1r	.	2E/	non	.	.	2g/	non
.	.	.	.	.	.	4d\	.	.	.
.	.	.	.	2F/	pa-	[2d\	-reil-	2f/	pa-
=16	=16	=16	=16	=16	=16	=16	=16	=16	=16
0r	.	0r	.	2G/	-reil-	2d\]	.	1e	-reil-
.	.	.	.	2A/	.	2c#i\	.	.	.
.	.	.	.	[1D	-le,	1d	-le,	[1d	-le,
=17	=17	=17	=17	=17	=17	=17	=17	=17	=17
2r	.	2r	.	1D]	.	0r	.	1d]	.
2A\	c'est	2F/	c'est	.	.	.	.	.	.
2.B-\	dou-	2G/	dou-	2r	.	.	.	1r	.
.	.	2G/	-leur	2G/	c'est	.	.	.	.
4A\	-leur	.	.	.	.	.	.	.	.
=18	=18	=18	=18	=18	=18	=18	=18	=18	=18
2G\	non	2G/	non	2B-\	dou-	1r	.	0r	.
2F\	pa-	2.A/	pa-	2A/	-leur	.	.	.	.
1E-i	-reil-	.	.	2B-\	non	2r	.	.	.
.	.	4G/	.	.	.	.	.	.	.
.	.	[2G/	-reil-	2G/	pa-	2c\	c'est	.	.
=19	=19	=19	=19	=19	=19	=19	=19	=19	=19
1D	-le,	2G/]	.	1A	-reil-	2d\	dou-	2r	.
.	.	2F#i/	.	.	.	2d\	-leur	2a/	c'est
1r	.	1G	-le,	1G	-le,	2d\	non	2.b-\	dou-
.	.	.	.	.	.	[2e\	pa-	.	.
.	.	.	.	.	.	.	.	4a/	-leur
=20	=20	=20	=20	=20	=20	=20	=20	=20	=20
0r	.	0r	.	1r	.	4e\]	.	2g/	non
.	.	.	.	.	.	4d\	.	.	.
.	.	.	.	.	.	1d	-reil-	2f/	pa-
.	.	.	.	1A	c'est	.	.	1e	-reil-
.	.	.	.	.	.	2c#i\	.	.	.
=21	=21	=21	=21	=21	=21	=21	=21	=21	=21
1r	.	1r	.	1.B-	dou-	0d	-le.	0d	-le.
1D	c'est	2r	.	.	.	.	.	.	.
.	.	2F/	c'est	2A/	.	.	.	.	.
=22	=22	=22	=22	=22	=22	=22	=22	=22	=22
1.E-	dou-	2G/	dou-	2G/	.	0r	.	0r	.
.	.	2G/	-leur	2E-/	-leur	.	.	.	.
.	.	2G/	non	2G/	non	.	.	.	.
2D\	-leur	[2A/	pa-	2F/	pa-	.	.	.	.
=23	=23	=23	=23	=23	=23	=23	=23	=23	=23
2C/	non	4A/]	.	4E-i/	-reil-	0r	.	1r	.
.	.	4G/	.	4D/	.	.	.	.	.
2BB-/	pa-	1G	-reil-	1D	.	.	.	.	.
1AA	-reil-	.	.	.	.	.	.	2r	.
.	.	2F#i/	.	2C/	.	.	.	2a/	Se
=24	=24	=24	=24	=24	=24	=24	=24	=24	=24
0GG	-le.	0G	-le.	1D	-le.	1r	.	2.bn\	je
.	.	.	.	.	.	.	.	4cc\	le
.	.	.	.	2r	.	2r	.	1dd	dis,
.	.	.	.	2B-\	Se	2d\	Se	.	.
=25	=25	=25	=25	=25	=25	=25	=25	=25	=25
2r	.	0r	.	2A/	je	2e\	je	0r	.
2D\	Se	.	.	2A/	le	2f\	le	.	.
2.E\	je	.	.	1G	dis,	1g	dis,	.	.
4F\	le	.	.	.	.	.	.	.	.
=26	=26	=26	=26	=26	=26	=26	=26	=26	=26
1G	dis,	0r	.	2r	.	2r	.	0r	.
.	.	.	.	2B-\	se	2d\	se	.	.
2r	.	.	.	2A/	je	2e\	je	.	.
2D\	se	.	.	2A/	le	2f\	le	.	.
=27	=27	=27	=27	=27	=27	=27	=27	=27	=27
2.E\	je	1r	.	0G	dis,	0g	dis,	2r	.
.	.	.	.	.	.	.	.	2g/	se
4F\	le	.	.	.	.	.	.	.	.
2G\	dis,	2r	.	.	.	.	.	2g/	je
2E\	se	2G/	Se	.	.	.	.	2g/	le
=28	=28	=28	=28	=28	=28	=28	=28	=28	=28
2F\	je	2A/	je	2r	.	0r	.	4f/	dit,
.	.	.	.	.	.	.	.	4e/	.
2G\	le	2B-\	le	2d\	se	.	.	2d/	.
1C	dis,	1c	dis,	2.e\	je	.	.	2c/	.
.	.	.	.	.	.	.	.	2g/	se
.	.	.	.	4f\	le	.	.	.	.
=29	=29	=29	=29	=29	=29	=29	=29	=29	=29
2r	.	2r	.	1g	dis,	0r	.	2e/	je
2E\	se	2G/	se	.	.	.	.	2g/	le
2F\	je	2A/	je	2r	.	.	.	4f/	dis
.	.	.	.	.	.	.	.	4e/	.
2G\	le	2B-\	le	2d\	se	.	.	2d/	.
=30	=30	=30	=30	=30	=30	=30	=30	=30	=30
0C	dis,	0c	dis,	2.e\	je	1r	.	2.c/	las
.	.	.	.	4f\	le	.	.	4d/	.
.	.	.	.	1g	dis,	2r	.	4e/	.
.	.	.	.	.	.	.	.	4f/	.
.	.	.	.	.	.	2e\	las	2g/	.
=31	=31	=31	=31	=31	=31	=31	=31	=31	=31
0r	.	0r	.	2r	.	2.e\	je	4c/	je
.	.	.	.	.	.	.	.	4d/	.
.	.	.	.	2c\	las	.	.	4e/	.
.	.	.	.	.	.	4d\	.	4f/	.
.	.	.	.	2c\	je	2e\	.	4g/	.
.	.	.	.	.	.	.	.	4a/	.
.	.	.	.	[2d\	s&ccedil;ay	[2f\	s&ccedil;ay	[2b-\	s&ccedil;ay
=32	=32	=32	=32	=32	=32	=32	=32	=32	=32
0r	.	0r	.	4d\]	.	4f\]	.	4b-\]	.
.	.	.	.	4c\	.	4e\	.	4a/	.
.	.	.	.	2A/	bien	1e	bien	1a	bien
.	.	.	.	1B-	pour-	.	.	.	.
.	.	.	.	.	.	2d\	pour-	2g/	pour-
=33	=33	=33	=33	=33	=33	=33	=33	=33	=33
1r	.	1r	.	0A	-quoy,	0e	-quoy:	1.a	-quoy,
2AA/	las	2r	.	.	.	.	.	.	.
[2AA/	je	2A/	las	.	.	.	.	2e/	.
=34	=34	=34	=34	=34	=34	=34	=34	=34	=34
4AA/]	.	2.A/	je	2.E/	je	1r	.	1e	.
4GG/	.	.	.	.	.	.	.	.	.
4AA/	.	.	.	.	.	.	.	.	.
4BB-/	.	4G/	.	4D/	s&ccedil;ay	.	.	.	.
2C/	.	2A/	.	2E/	bien	2r	.	1r	.
2D\	s&ccedil;ay	[2B-\	s&ccedil;ay	2F/	pour-	2d\	Sans	.	.
=35	=35	=35	=35	=35	=35	=35	=35	=35	=35
1AA	bien	4B-\]	.	1E	-quoy:	1c	de	2r	.
.	.	4A/	.	.	.	.	.	.	.
.	.	1A	bien	.	.	.	.	2.e/	Sans
1E	pour-	.	.	2r	.	1B	qui-	.	.
.	.	.	.	.	.	.	.	4d/	.
.	.	2G/	pour-	[2E/	Sans	.	.	2Bn/	de
=36	=36	=36	=36	=36	=36	=36	=36	=36	=36
2AA/	quoy:	0A	-quoy:	2E/]	.	1A	-bus	2c/	qui-
2.D\	Sans	.	.	2D/	de	.	.	2d/	.
.	.	.	.	2.F/	qui-	2r	.	2A/	-bus
4C/	.	.	.	.	.	.	.	.	.
4D\	de	.	.	.	.	2d\	il	[2a/	de
4E\	.	.	.	4G/	.	.	.	.	.
=37	=37	=37	=37	=37	=37	=37	=37	=37	=37
1F	qui-	1r	.	2A/	.	2c\	se	4a/]	.
.	.	.	.	.	.	.	.	4g/	.
.	.	.	.	2F/	.	2f\	fault	4a/	qui-
.	.	.	.	.	.	.	.	4f/	.
1C	.	2r	.	2.c\	-bus	2f\	te-	1g	-bus,
.	.	2G/	Sans	.	.	2e\	-nir	.	.
.	.	.	.	4B-\	.	.	.	.	.
=38	=38	=38	=38	=38	=38	=38	=38	=38	=38
1D	-bus	1F	de	1A	.	1f	quoy,	2r	.
.	.	.	.	.	.	.	.	2.a/	sans
1AA	.	1E	qui-	2r	.	2r	.	.	.
.	.	.	.	.	.	.	.	4g/	de
.	.	.	.	[2A/	il	2c\	il	2e/	qui-
=39	=39	=39	=39	=39	=39	=39	=39	=39	=39
2r	.	1D	-bus	2A/]	.	2d\	se	1f	-bus,
2D\	il	.	.	2F/	se	2f\	fault	.	.
2C	se	2r	.	2.c\	fault	2f\	te-	1g	.
2C	fault	2G/	il	.	.	2e\	-nir	.	.
.	.	.	.	4B-\	.	.	.	.	.
=40	=40	=40	=40	=40	=40	=40	=40	=40	=40
2.D\	te-	2F/	se	2A/	te-	0f	quoy.	2r	.
.	.	2B-\	fault	2d\	-nir	.	.	2.f/	sans
4E\	.	.	.	.	.	.	.	.	.
1F	-nir	2B-\	te-	1c	quoy,	.	.	.	.
.	.	.	.	.	.	.	.	4e/	de
.	.	2A/	-nir	.	.	.	.	2c/	qui-
=41	=41	=41	=41	=41	=41	=41	=41	=41	=41
2BB-/	quoy,	1B-	quoy,	2r	.	0r	.	2d/	-bus
2D\	il	.	.	2F	il	.	.	2f/	il
2D\	se	2r	.	2F	se	.	.	2f/	se
2D\	fault	2F/	il	2D/	fault	.	.	2f/	fault
=42	=42	=42	=42	=42	=42	=42	=42	=42	=42
2C/	te-	2G/	se	2E/	te-	0r	.	2e/	te-
2BB-/	.	2B-\	fault	2.F/	-nir	.	.	2d/	.
1C	-nir	2B-\	te-	.	.	.	.	1e	-nir
.	.	.	.	4E/	.	.	.	.	.
.	.	2A/	-nir	4E/	.	.	.	.	.
.	.	.	.	4D/	.	.	.	.	.
=43	=43	=43	=43	=43	=43	=43	=43	=43	=43
0BB-	quoy.	0B-	quoy.	2F/	quoy,	0r	.	[0d	quoy.
.	.	.	.	4B-\	te-	.	.	.	.
.	.	.	.	4c\	.	.	.	.	.
.	.	.	.	4d\	-nir	.	.	.	.
.	.	.	.	4e\	.	.	.	.	.
.	.	.	.	2f\	quoy.	.	.	.	.
=44	=44	=44	=44	=44	=44	=44	=44	=44	=44
1B-	Fem-	0r	.	2r	.	0r	.	0d]	.
.	.	.	.	1B-	Fe-	.	.	.	.
2G\	-me	.	.	.	.	.	.	.	.
[2B-\	qui	.	.	2G/	-me	.	.	.	.
=45	=45	=45	=45	=45	=45	=45	=45	=45	=45
2B-\]	.	0r	.	1B-	qui	0r	.	0r	.
4A\	.	.	.	.	.	.	.	.	.
4G\	.	.	.	.	.	.	.	.	.
2.F\	dort	.	.	2.A/	dort	.	.	.	.
4G\	.	.	.	4G/	.	.	.	.	.
=46	=46	=46	=46	=46	=46	=46	=46	=46	=46
2A\	.	0r	.	2F/	.	0r	.	0r	.
2D\	pour	.	.	2F/	pour	.	.	.	.
[1E-i	ar-	.	.	2G/	ar-	.	.	.	.
.	.	.	.	2G/	-gent	.	.	.	.
=47	=47	=47	=47	=47	=47	=47	=47	=47	=47
2E-\]	.	0r	.	2G/	se	0r	.	0r	.
2D\	-gent	.	.	2.A/	res-	.	.	.	.
2C/	se	.	.	.	.	.	.	.	.
.	.	.	.	4G/	.	.	.	.	.
2BB-/	res-	.	.	[2G/	-veil-	.	.	.	.
=48	=48	=48	=48	=48	=48	=48	=48	=48	=48
1AA	-veil-	0r	.	2G/]	.	0r	.	1r	.
.	.	.	.	2F#i/	.	.	.	.	.
2GG/	-le,	.	.	2.G/	-le,	.	.	1b-	Fem-
[2G\	fem-	.	.	.	.	.	.	.	.
.	.	.	.	4A/	.	.	.	.	.
=49	=49	=49	=49	=49	=49	=49	=49	=49	=49
2G\]	.	0r	.	2B-\	.	0r	.	1g	-me
2C/	-me	.	.	2c\	fem-	.	.	.	.
1G	qui	.	.	2d\	-me	.	.	1b-	qui
.	.	.	.	2e\	qui	.	.	.	.
=50	=50	=50	=50	=50	=50	=50	=50	=50	=50
2F\	dort,	0r	.	2f\	dort,	1f	Fem-	2.a/	dort
1D	fem-	.	.	2.F/	fem-	.	.	.	.
.	.	.	.	.	.	.	.	4g/	.
.	.	.	.	.	.	1d	-me	1f	.
.	.	.	.	4G/	.	.	.	.	.
2BB-/	-me	.	.	2B-\	.	.	.	.	.
=51	=51	=51	=51	=51	=51	=51	=51	=51	=51
1D	qui	0r	.	2A/	-me	1f	qui	2r	.
.	.	.	.	2F/	qui	.	.	2f/	pour
2.C/	dort	.	.	1c	dort	2.e\	dort	2g/	ar-
.	.	.	.	.	.	.	.	2g/	-gent
4D\	.	.	.	.	.	4d\	.	.	.
=52	=52	=52	=52	=52	=52	=52	=52	=52	=52
2E\	.	0r	.	2r	.	1c	.	2g/	se
2.F\	pour	.	.	2c\	pour	.	.	2.a/	res-
.	.	.	.	2d\	ar-	2r	.	.	.
4G\	.	.	.	.	.	.	.	4g/	.
2E\	ar-	.	.	2e\	-gent	2c\	pour	[2g/	-veil-
=53	=53	=53	=53	=53	=53	=53	=53	=53	=53
1D	-gent	1B-	Fem-	4f\	se	2d\	ar-	2g/]	.
.	.	.	.	4e\	.	.	.	.	.
.	.	.	.	4d\	.	2d\	-gent	2f#i/	.
.	.	.	.	4c\	.	.	.	.	.
2GG/	se	1G	-me	4B-\	.	2d\	se	1g	-le,
.	.	.	.	4A/	.	.	.	.	.
2C/	res-	.	.	[2G/	.	[2e\	res-	.	.
=54	=54	=54	=54	=54	=54	=54	=54	=54	=54
2BB-/	-veil-	1B-	qui	4G/]	.	4e\]	.	1r	.
.	.	.	.	4F/	.	4d\	.	.	.
2GG/	.	.	.	2G/	res-	1d	-veil-	.	.
1AA	-le,	2.A/	dort	1E	-veil-	.	.	2r	.
.	.	.	.	.	.	2c#i\	.	2e/	se
.	.	4G/	.	.	.	.	.	.	.
=55	=55	=55	=55	=55	=55	=55	=55	=55	=55
1r	.	1F	.	0D	-le,	1d	-le,	2f/	re-
.	.	.	.	.	.	.	.	2.a/	-veil-
1A	pour	2r	.	.	.	1r	.	.	.
.	.	.	.	.	.	.	.	4g/	.
.	.	2F/	pour	.	.	.	.	4f/	.
.	.	.	.	.	.	.	.	4e/	.
=56	=56	=56	=56	=56	=56	=56	=56	=56	=56
2.B-\	ar-	2G/	ar-	2r	.	0r	.	0d	-le,
.	.	2G/	-gent	2G/	pour	.	.	.	.
4A\	-gent	.	.	.	.	.	.	.	.
2G\	se	2G/	se	2B-\	ar-	.	.	.	.
2F\	res-	[2A/	res-	2A/	-gent	.	.	.	.
=57	=57	=57	=57	=57	=57	=57	=57	=57	=57
1E-i	-veil-	4A/]	.	2B-\	se	2r	.	1r	.
.	.	4G	.	.	.	.	.	.	.
.	.	1G	-veil-	2G/	res-	2c\	pour	.	.
1D	-le,	.	.	1A	-veil-	2d\	ar-	2r	.
.	.	2F#i/	.	.	.	2d\	-gent	2a/	pour
=58	=58	=58	=58	=58	=58	=58	=58	=58	=58
0r	.	1G	-le,	1G	-le,	2d\	se	2.b-\	ar-
.	.	.	.	.	.	2.e\	res-	.	.
.	.	.	.	.	.	.	.	4a/	-gent
.	.	1r	.	2E/	se	.	.	2g/	se
.	.	.	.	.	.	4d\	.	.	.
.	.	.	.	2F/	res-	[2d\	-veil-	2f/	res-
=59	=59	=59	=59	=59	=59	=59	=59	=59	=59
0r	.	0r	.	2G/	-veil-	2d\]	.	1e	-veil-
.	.	.	.	2A/	.	2c#i\	.	.	.
.	.	.	.	[1D	-le,	1d	-le,	[1d	-le,
=60	=60	=60	=60	=60	=60	=60	=60	=60	=60
2r	.	2r	.	1D]	.	0r	.	1d]	.
2A\	pour	2F/	pour	.	.	.	.	.	.
2.B-\	ar-	2G/	ar-	2r	.	.	.	1r	.
.	.	2G/	-gent	2G/	pour	.	.	.	.
4A\	-gent	.	.	.	.	.	.	.	.
=61	=61	=61	=61	=61	=61	=61	=61	=61	=61
2G\	se	2G/	se	2B-\	ar-	1r	.	0r	.
2F\	res-	2.A/	res-	2A/	-gent	.	.	.	.
1E-i	-veil-	.	.	2B-\	se	2r	.	.	.
.	.	4G/	.	.	.	.	.	.	.
.	.	[2G/	-veil-	2G/	res-	2c\	pour	.	.
=62	=62	=62	=62	=62	=62	=62	=62	=62	=62
1D	-le,	2G/]	.	1A	-veil-	2d\	ar-	2r	.
.	.	2F#i/	.	.	.	2d\	-gent	2a/	pour
1r	.	1G	-le,	1G	-le,	2d\	se	2.b-\	ar-
.	.	.	.	.	.	[2e\	res-	.	.
.	.	.	.	.	.	.	.	4a/	-gent
=63	=63	=63	=63	=63	=63	=63	=63	=63	=63
0r	.	0r	.	1r	.	4e\]	.	2g/	se
.	.	.	.	.	.	4d\	.	.	.
.	.	.	.	.	.	1d	-veil-	2f/	-res-
.	.	.	.	1A	pour	.	.	1e	-veil-
.	.	.	.	.	.	2c#i\	.	.	.
=64	=64	=64	=64	=64	=64	=64	=64	=64	=64
1r	.	1r	.	2B-\	ar-	1d	-le,	0d	-le,
.	.	.	.	2G/	-gent	.	.	.	.
1D	pour	2r	.	2A/	se	2r	.	.	.
.	.	2F/	pour	[2D/	res-	2d\	pour	.	.
=65	=65	=65	=65	=65	=65	=65	=65	=65	=65
2GG/	ar-	2G/	ar-	2D/]	.	2B\	ar-	0r	.
2.C/	-gent	2G/	-gent	2C/	.	2.e\	-gent	.	.
.	.	2G/	se	2G/	-veil-	.	.	.	.
4BB-/	.	.	.	.	.	4d\	.	.	.
2C/	.	[2A/	res-	2E/	.	4c\	.	.	.
.	.	.	.	.	.	4B\	.	.	.
=66	=66	=66	=66	=66	=66	=66	=66	=66	=66
2D\	se	4A/]	.	2F/	.	2A/	.	1r	.
.	.	4G/	.	.	.	.	.	.	.
2GG/	res-	1G	-veil-	2G/	.	1B	se	.	.
1D	-veil-	.	.	1D	-le,	.	.	2r	.
.	.	2F#i/	.	.	.	2A/	res-	2d/	pour
=67	=67	=67	=67	=67	=67	=67	=67	=67	=67
2.C/	-le,	1.G	-le,	2r	.	2.c\	-veil-	2e/	ar-
.	.	.	.	2.G/	pour	.	.	2.g/	-gent,
4BB-/	.	.	.	.	.	4d\	.	.	.
1GG/	.	.	.	.	.	1B	.	.	.
.	.	.	.	4A/	.	.	.	4f/	.
.	.	2G/	pour	2B-\	ar-	.	.	2d/	.
=68	=68	=68	=68	=68	=68	=68	=68	=68	=68
2.AA/	pour	2E/	ar-	4c\	-gent	[0A/l	-le.	2.c/	pour
.	.	.	.	4A/	.	.	.	.	.
.	.	2.A/	-gent	2.c\	.	.	.	.	.
4BB-/	.	.	.	.	.	.	.	4d/	.
2C/	ar-	.	.	.	.	.	.	2e/	ar-
.	.	4G/	.	4B-\	.	.	.	.	.
[2D\	-gent	4F/	.	4A/	.	.	.	[2f/	-gent
.	.	4E/	.	4G/	.	.	.	.	.
=69	=69	=69	=69	=69	=69	=69	=69	=69	=69
2D\]	.	2D/	.	2F/	.	0A_	.	2f/]	.
4AA/	se	1E	se	4c\	se	.	.	4c/	se
4BB-/	.	.	.	4B-\	.	.	.	4d/	.
2C/	res-	.	.	4A/	.	.	.	2e/	res-
.	.	.	.	4G/	.	.	.	.	.
[2D\	-veil-	2D/	res-	4F/	.	.	.	[2f/	-veil-
.	.	.	.	4E/	.	.	.	.	.
=70	=70	=70	=70	=70	=70	=70	=70	=70	=70
4D\]	.	2.F/	-veil-	1D	.	0A_	.	4f/]	.
4C/	.	.	.	.	.	.	.	4e/	.
2D\	.	.	.	.	.	.	.	1d	.
.	.	4G/	.	.	.	.	.	.	.
1AA	.	1E	.	1E	res-	.	.	.	.
.	.	.	.	.	.	.	.	2c#i/	.
=71	=71	=71	=71	=71	=71	=71	=71	=71	=71
[0Dl	-le.	[0D/l	-le.	1.F	-veil-	0A_	.	[0d/l	-le.
.	.	.	.	2D/	.	.	.	.	.
=72	=72	=72	=72	=72	=72	=72	=72	=72	=72
0D]	.	0D]	.	0D/l	-le.	0A]	.	0d]	.
==	==	==	==	==	==	==	==	==	==
*-	*-	*-	*-	*-	*-	*-	*-	*-	*-
!!!RDF**kern: l=long note in original notation
!!!RDF**kern: i=editorial accidental
!!!ENC: Will Watson 10/09/2011
!!!END: 2011/08/10/
!!!EED: Jesse Rodin
!!!EEV: 2011/10/07/
!!attribution-level@Jos: 1 (secure, core group [checkmark])
!!!ONB: Translated from MusicXML and edited on 2011/10/07/ by Craig Sapp
!!muse2ps: C^@{COM}\n@{SCT}^i2I150v75,75,75,75,105c120z18l2780t100
